!!!OTL: Macht der Liebe (2-69) S. 209
!!!id: P0942
**kern
*clefG2
*k[f#]
*G:
{4d
=1
4d
4g
4g
=2
4g
4a
4b
=3
4b
4.dd
8dd
=4
2dd}
=5
{8b
8b
=6
4b
4a
4g
=7
4b
4a
4g
=8
4g
4f#
4g
=9
4d}
=10
{4d
4d
=11
2b
4b
=12
4.b
8b
4g
=13
4.g
8e
4e
=14
2cc}
4r
=15
4r
=16
{4cc
4cc
=17
2b
4cc
=18
4dd
4f#
4f#
=19
4a
4.g
8f#
=20
2g}
=21
{4g
=22
2.dd
=23
8ee
8dd
8dd
8dd
8dd
8gg
=24
4b
4.dd
8cc
=25
2.b}
=26
{4a
4b
4cc
=27
4.dd
8cc
4b
=28
2.a}
=29
{4.g
8a
8b
8cc
=30
2.dd
=31
8ee
8dd
8dd
8dd
8dd
8gg
=32
4b
4.dd
8cc
=33
2.b}
=34
{4a
4b
4cc
=35
4dd
4cc
4b
=36
2.a
=37
2g}
==
*-
!!!minrhy: 8
!!!meters: 3/4 ]  ZZ[8
!!!cut: Macht der Liebe (2-69) S. 209
!!!reg: Lothringen
!!!trd: PINCK, Louis: Verklingende Weisen, Bd 2, Metz 1928
!!!rhy1: X_  X_X_X_  X_X_X_  X_X_.X  X__
!!!rhy2: XX  X_X_X_  X_X_X_  X_X_X_  X_
!!!key: P0942  08  G 3/4 ]  ZZ[8
!!!mod: HEPTATONIK IONISCH]  AMBITUS[11
!!!kad: 5-5413231
!!!akz: -5135_331-5_3314_3521_5633_252_15633_2521_
!!!fot: 'a__b__c__d__e__f__g__fv_
!!!for: 'a__b__c__d__e__f__g__h__
!!!fok: '/__\__~a_\__^a_^__^a_^d_
!! PHRAS[GEMISCHTTAKTIG]
!!!fkt: Soldatenlied, Liebeslied
!! LOTH VKL
!! PR[9] 2K[3] 2G[19] 3K[3] 3G[0] 4A[9] 4Ü[0] 5A[0] 6K[0] 6G[0]
!! 7K[0] 7G[0] 8A[0] MEHR[0] SI[34] ABS[32] SR[22] SP[13]
!! ST[8] 2k[16] 2g[34] 3k[0] 3g[3] 4d[0] 4ü[0] 5d[3] 6k[0] 6g[0]
!! 7k[0] 7g[0] 8d[0] mehr[0] si[56] dm[-22] sr[50] sp[6]
!! 1F[12] 2F[85] 3F[3] 4F[0] LF[0] 2P[0] 3P[0] 4P[0] TRI[0] DF[3] AB[33]
!! TF[0] U3K[0] U3[0] U4[0] U4Ü[0] U5[0] U6K[0] U6[0] U7K[3] U7[0]
!! N1[9] N2K[0] N2[12] N3K[15] N3[0] N4[18] N4Ü[0] N5[30] N6K[0] N6[6]
!!!n7k: 6] N7[0] O1[0] O2K[0] O2[0] O3K[0] O3[0] HÖ[0
